!!!COM: Fux, Johann Joseph
!!!OMD: Gradus ad Parnassum Exercise
!!!YEC: CC0 1.0 Universal (Public Domain). Mark Gotham and FourScoreAndMore.org waive all rights to this document.
**kern	**kern
*part2	*part1
*staff2	*staff1
*I"2	*I"1
*I'Pno	*I'Pno
!!LO:LB:g=z
*clefGv2	*clefGv2
*k[]	*k[]
!!LO:TX:omd:t=
*M2/2	*M2/2
=403	=403
!	!LO:TX:a:t=Fig. 83; Species&colon; 5; Modal final&colon; d; Cantus firmus&colon; Upper
2r	1d
[2d\	.
=404	=404
2d\]	1f
4A/	.
4B\	.
=405	=405
4c\	1e
4G/	.
[2c\	.
=406	=406
4c\]	1d
8B\L	.
8A\J	.
4B\	.
4A/	.
=407	=407
4G/	1g
4A/	.
4B\	.
4c\	.
=408	=408
4d\	1f
4A/	.
[2d\	.
!!LO:LB:g=z
=409	=409
4d\]	1a
4e\	.
[2f\	.
=410	=410
4f\]	1g
8e\L	.
8d\J	.
[2e\	.
=411	=411
4e\]	1f
4A/	.
[2d\	.
=412	=412
2d\]	1e
2c#X\	.
=413	=413
1d	1d
==	==
*-	*-
!!!software: music21 v.9.7.1
!!!software: music21 v.9.7.1
!!!software: MuseScore 3.4.2
!!!RDF**kern: > = above
!!!RDF**kern: < = below
